X: 11
T:Faithfull Sheperd. WCl.11
M:C|
L:1/8
Q:180
S:William Clarke MS,Lincoln,1770.
R:reel
O:Lincoln
A:England
Z:vmp.Barry Callaghan
K:C
c2 (ec) edcB|c2 ge d4|c2 (ec) edcB|c2 G2 E2 C2::!
e2 ge f2 af| e2 (ge) "tr"f3g|e2 (dc) edcB|c2 G2 E2 C2:||
